img/section2-background-mobile.svg

<svg width="390" height="845" viewBox="0 0 390 845" fill="none" xmlns="http://www.w3.org/2000/svg">
<g clip-path="url(#clip0_218_689)">
<rect width="390" height="845" fill="white"/>
<rect x="2" width="390" height="844" fill="#FFB81D" fill-opacity="0.05"/>
<mask id="mask0_218_689" style="mask-type:alpha" maskUnits="userSpaceOnUse" x="2" y="0" width="390" height="844">
<rect x="2" width="390" height="844" fill="url(#paint0_linear_218_689)"/>
</mask>
<g mask="url(#mask0_218_689)">
<path d="M179.617 -74.9378H583.403C585.735 -74.9378 592.014 -60.1643 592.861 -58.446C599.833 -44.4439 604.781 -29.5211 607.556 -14.1256C610.789 4.30231 611.139 25.3817 605.746 43.4131C598.666 67.1283 586.698 88.7053 581.328 113.19C575.958 137.675 570.891 181.825 591.369 201.668C593.375 203.76 595.95 205.22 598.775 205.867C613.144 208.572 638.812 182.703 649.07 174.702C667.076 160.668 684.554 145.972 702.567 131.937C727.288 112.685 752.179 90.9447 782.72 81.6685C827.265 68.1314 852.008 98.2459 891.245 110.64C903.998 114.676 918.522 114.994 930.21 108.478C937.103 104.645 942.598 98.6891 947.245 92.3132C966.432 66.0242 973.582 32.0064 979.939 0.663381C980.716 -3.3721 989.87 -75 989.552 -75H1135.43C1032.4 -28.1448 1011.87 101.317 925.928 166.732C902.389 184.764 876.651 208.013 846.825 214.396C835.409 216.846 821.84 214.217 815.421 204.459C807.697 192.726 811.054 177.144 803.617 164.866C796.794 153.615 785.432 145.365 772.291 143.499C760.448 141.812 748.371 144.277 737.033 148.056C701.627 159.859 673.48 184.523 646.63 209.482C626.106 228.579 610.393 252.294 583.481 263.405C574.342 267.176 564.053 269.245 554.549 266.57C514.915 255.428 534.786 178.645 544.213 152.348C552.38 129.558 563.361 107.911 572.112 85.3463C575.671 76.1946 578.904 66.6851 579.222 56.9036C580.481 18.7492 537.048 6.50278 506.173 11.2303C465.07 17.5284 446.225 64.7413 424.512 94.6225C413.003 110.469 398.479 125.297 379.797 131.167C346.217 141.719 323.727 117.358 319.958 85.8984C316.671 58.2332 319.43 29.4483 303.312 5.03321C287.194 -19.3819 262.902 -38.0819 237.785 -52.7698C222.017 -62.046 198.828 -74.9378 179.617 -74.9378Z" fill="url(#paint1_linear_218_689)"/>
</g>
<path d="M33.24 801.224C36.088 801.224 38.808 799.24 38.808 795.08C38.808 790.92 36.088 788.936 33.24 788.936C30.376 788.936 27.656 790.92 27.656 795.08C27.656 799.24 30.376 801.224 33.24 801.224ZM33.24 799.128C31.4 799.128 30.264 797.56 30.264 795.08C30.264 792.6 31.4 791.096 33.24 791.096C35.064 791.096 36.216 792.6 36.216 795.08C36.216 797.56 35.064 799.128 33.24 799.128ZM44.0321 801.176C46.2881 801.176 47.3441 799.912 47.8881 798.584L45.7601 797.848C45.3921 799 44.7681 799.368 44.0801 799.368C42.8961 799.368 42.4161 798.28 42.4161 796.76C42.4161 795.064 43.0721 794.184 44.1121 794.184C44.8641 794.184 45.3601 794.536 45.6961 795.624L47.8561 794.904C47.3601 793.528 46.4641 792.296 44.1441 792.296C42.2561 792.296 39.8401 793.336 39.8401 796.744C39.8401 800.056 42.0321 801.176 44.0321 801.176ZM52.7631 801.112C53.3231 801.112 54.2671 801.032 54.4591 800.984V799.144C54.2831 799.208 53.8991 799.24 53.6111 799.24C52.6831 799.24 52.4271 798.952 52.4271 798.04V794.344H54.6191V792.472H52.4271V789.544H49.8671V792.472H48.4431V794.344H49.8671V798.6C49.8671 800.2 50.2351 801.112 52.7631 801.112ZM58.3593 791.56H60.0553L62.4393 788.792H59.8473L58.3593 791.56ZM57.8793 801.128C59.1432 801.128 60.0713 800.632 60.8553 799.752C60.8553 800.232 60.9353 800.648 61.0473 801H63.6073C63.4313 800.568 63.3673 799.944 63.3673 798.92V795.64C63.3673 793.448 62.4073 792.296 60.0713 792.296C57.9433 792.296 56.6633 793.048 55.8153 793.816L56.9033 795.288C57.6873 794.68 58.6153 794.232 59.7033 794.232C60.5353 794.232 60.8553 794.632 60.8553 795.256V795.464C57.1113 795.768 55.4473 796.856 55.4473 798.824C55.4473 800.28 56.5673 801.128 57.8793 801.128ZM58.9033 799.192C58.3433 799.192 57.9593 798.92 57.9593 798.376C57.9593 797.592 58.8233 797.08 60.8553 796.872V798.456C60.4233 798.888 59.7993 799.192 58.9033 799.192ZM67.2896 801.016H69.8816L72.9216 792.472H70.5056L68.7136 798.152H68.6816L66.8896 792.472H64.2336L67.2896 801.016ZM73.9622 791.304H76.5543V789.24H73.9622V791.304ZM73.9783 801H76.5383V792.472H73.9783V801ZM82.4894 801.176C84.5534 801.176 86.8414 800.056 86.8414 796.744C86.8414 793.4 84.5534 792.296 82.4894 792.296C80.4094 792.296 78.1214 793.4 78.1214 796.744C78.1214 800.056 80.4254 801.176 82.4894 801.176ZM82.4894 799.368C81.1774 799.368 80.6974 798.184 80.6974 796.76C80.6974 795.224 81.2574 794.184 82.4894 794.184C83.7694 794.184 84.2654 795.336 84.2654 796.76C84.2654 798.312 83.7054 799.368 82.4894 799.368ZM97.6883 801.224C100.664 801.224 102.072 799.56 102.648 797.176L100.2 796.632C99.7843 798.248 99.0963 799.128 97.7043 799.128C95.9123 799.128 94.9203 797.56 94.9203 795.064C94.9203 792.616 95.8802 791.096 97.6723 791.096C99.0643 791.096 99.6403 792.024 100.024 793.384L102.488 792.664C101.976 790.536 100.68 788.936 97.6883 788.936C94.6963 788.936 92.3123 790.952 92.3123 795.064C92.3123 799.24 94.6003 801.224 97.6883 801.224ZM106.161 801.128C107.424 801.128 108.353 800.632 109.137 799.752C109.137 800.232 109.217 800.648 109.329 801H111.889C111.713 800.568 111.649 799.944 111.649 798.92V795.64C111.649 793.448 110.689 792.296 108.353 792.296C106.225 792.296 104.945 793.048 104.097 793.816L105.185 795.288C105.969 794.68 106.897 794.232 107.985 794.232C108.817 794.232 109.137 794.632 109.137 795.256V795.464C105.393 795.768 103.729 796.856 103.729 798.824C103.729 800.28 104.849 801.128 106.161 801.128ZM107.185 799.192C106.625 799.192 106.241 798.92 106.241 798.376C106.241 797.592 107.105 797.08 109.137 796.872V798.456C108.705 798.888 108.081 799.192 107.185 799.192ZM116.883 801.176C118.851 801.176 120.643 800.36 120.643 798.296C120.643 796.36 118.867 795.976 117.187 795.688C116.131 795.496 115.667 795.288 115.667 794.776C115.667 794.312 116.083 794.024 116.819 794.024C117.619 794.024 118.467 794.36 119.331 794.952L120.339 793.496C119.395 792.744 118.339 792.296 116.595 792.296C114.691 792.296 113.283 793.288 113.283 795C113.283 797 115.011 797.384 116.627 797.672C117.795 797.88 118.243 798.104 118.243 798.696C118.243 799.256 117.683 799.528 116.883 799.528C115.843 799.528 114.691 799.096 113.923 798.424L112.899 799.864C113.763 800.6 115.011 801.176 116.883 801.176ZM125.498 801.112C126.058 801.112 127.002 801.032 127.194 800.984V799.144C127.018 799.208 126.634 799.24 126.346 799.24C125.418 799.24 125.161 798.952 125.161 798.04V794.344H127.354V792.472H125.161V789.544H122.602V792.472H121.178V794.344H122.602V798.6C122.602 800.2 122.97 801.112 125.498 801.112ZM132.63 801.176C134.118 801.176 135.35 800.744 136.342 799.896L135.35 798.36C134.774 798.888 133.83 799.384 132.822 799.384C131.75 799.384 130.966 798.84 130.838 797.432H136.486V797.048C136.486 793.176 134.326 792.296 132.566 792.296C130.806 792.296 128.278 793.432 128.278 796.744C128.278 800.04 130.406 801.176 132.63 801.176ZM130.87 795.912C131.062 794.664 131.75 794.136 132.55 794.136C133.51 794.136 134.054 794.712 134.182 795.912H130.87ZM138.072 801H140.632V789.16H138.072V801ZM146.583 801.176C148.647 801.176 150.935 800.056 150.935 796.744C150.935 793.4 148.647 792.296 146.583 792.296C144.503 792.296 142.215 793.4 142.215 796.744C142.215 800.056 144.519 801.176 146.583 801.176ZM146.583 799.368C145.271 799.368 144.791 798.184 144.791 796.76C144.791 795.224 145.351 794.184 146.583 794.184C147.863 794.184 148.359 795.336 148.359 796.76C148.359 798.312 147.799 799.368 146.583 799.368ZM156.966 801H159.558V796.792H161.238C163.606 796.792 166.102 796.136 166.102 792.952C166.102 789.832 163.798 789.16 161.27 789.16H156.966V801ZM159.558 794.776V791.288H161.334C162.966 791.288 163.558 791.912 163.558 793.016C163.558 794.152 162.95 794.776 161.334 794.776H159.558ZM169.004 801.128C170.268 801.128 171.196 800.632 171.98 799.752C171.98 800.232 172.06 800.648 172.172 801H174.732C174.556 800.568 174.492 799.944 174.492 798.92V795.64C174.492 793.448 173.532 792.296 171.196 792.296C169.068 792.296 167.788 793.048 166.94 793.816L168.028 795.288C168.812 794.68 169.74 794.232 170.828 794.232C171.66 794.232 171.98 794.632 171.98 795.256V795.464C168.236 795.768 166.572 796.856 166.572 798.824C166.572 800.28 167.692 801.128 169.004 801.128ZM170.028 799.192C169.468 799.192 169.084 798.92 169.084 798.376C169.084 797.592 169.948 797.08 171.98 796.872V798.456C171.548 798.888 170.924 799.192 170.028 799.192ZM178.783 801.176C180.271 801.176 181.215 800.328 181.727 799.672V801H184.303V792.472H181.727V798.264C181.151 798.76 180.559 799.128 179.871 799.128C179.151 799.128 178.863 798.712 178.863 797.944V792.472H176.287V798.696C176.287 800.456 177.327 801.176 178.783 801.176ZM186.353 801H188.913V789.16H186.353V801ZM194.864 801.176C196.928 801.176 199.216 800.056 199.216 796.744C199.216 793.4 196.928 792.296 194.864 792.296C192.784 792.296 190.496 793.4 190.496 796.744C190.496 800.056 192.8 801.176 194.864 801.176ZM194.864 799.368C193.552 799.368 193.072 798.184 193.072 796.76C193.072 795.224 193.632 794.184 194.864 794.184C196.144 794.184 196.64 795.336 196.64 796.76C196.64 798.312 196.08 799.368 194.864 799.368ZM28.52 827H29.656V821.752H32.344C34.84 821.752 36.6 820.776 36.6 818.392C36.6 816.216 35.032 815.16 32.456 815.16H28.52V827ZM29.656 820.744V816.2H32.408C34.392 816.2 35.464 816.824 35.464 818.424C35.464 820.136 34.376 820.744 32.424 820.744H29.656ZM43.1533 827.224C45.5213 827.224 47.0573 825.768 47.6333 823.432L46.5453 823.192C46.0333 825.176 44.9293 826.2 43.1693 826.2C40.8653 826.2 39.3613 824.28 39.3613 821C39.3613 817.96 40.8493 815.976 43.1373 815.976C44.9453 815.976 45.8253 816.952 46.3533 818.824L47.4413 818.552C46.8813 816.36 45.5533 814.936 43.1533 814.936C40.1933 814.936 38.2253 817.448 38.2253 821.032C38.2253 824.808 40.1613 827.224 43.1533 827.224ZM49.0448 827H50.1488L51.4128 823.352H56.2128L57.4768 827H58.6608L54.4688 815.112H53.2368L49.0448 827ZM51.7648 822.344L53.7968 816.456H53.8288L55.8608 822.344H51.7648Z" fill="white"/>
<path d="M291.95 801H299.774V798.888H294.558V789.16H291.95V801ZM303.501 801.176C304.989 801.176 305.933 800.328 306.445 799.672V801H309.021V792.472H306.445V798.264C305.869 798.76 305.277 799.128 304.589 799.128C303.869 799.128 303.581 798.712 303.581 797.944V792.472H301.005V798.696C301.005 800.456 302.045 801.176 303.501 801.176ZM311.424 791.56H313.12L315.504 788.792H312.912L311.424 791.56ZM311.072 801H313.632V792.472H311.072V801ZM319.039 801.176C321.007 801.176 322.799 800.36 322.799 798.296C322.799 796.36 321.023 795.976 319.343 795.688C318.287 795.496 317.823 795.288 317.823 794.776C317.823 794.312 318.239 794.024 318.975 794.024C319.775 794.024 320.623 794.36 321.487 794.952L322.495 793.496C321.551 792.744 320.495 792.296 318.751 792.296C316.847 792.296 315.439 793.288 315.439 795C315.439 797 317.167 797.384 318.783 797.672C319.951 797.88 320.399 798.104 320.399 798.696C320.399 799.256 319.839 799.528 319.039 799.528C317.999 799.528 316.847 799.096 316.079 798.424L315.055 799.864C315.919 800.6 317.167 801.176 319.039 801.176ZM330.935 801H333.543V791.336H337.079V789.16H327.415V791.336H330.935V801ZM340.302 801.176C341.79 801.176 343.022 800.744 344.014 799.896L343.022 798.36C342.446 798.888 341.502 799.384 340.494 799.384C339.422 799.384 338.638 798.84 338.51 797.432H344.158V797.048C344.158 793.176 341.998 792.296 340.238 792.296C338.478 792.296 335.95 793.432 335.95 796.744C335.95 800.04 338.078 801.176 340.302 801.176ZM338.542 795.912C338.734 794.664 339.422 794.136 340.222 794.136C341.182 794.136 341.726 794.712 341.854 795.912H338.542ZM345.744 801H348.304V789.16H345.744V801ZM354.239 801.176C355.727 801.176 356.959 800.744 357.951 799.896L356.959 798.36C356.383 798.888 355.439 799.384 354.431 799.384C353.359 799.384 352.575 798.84 352.447 797.432H358.095V797.048C358.095 793.176 355.935 792.296 354.175 792.296C352.415 792.296 349.887 793.432 349.887 796.744C349.887 800.04 352.015 801.176 354.239 801.176ZM352.479 795.912C352.671 794.664 353.359 794.136 354.159 794.136C355.119 794.136 355.663 794.712 355.791 795.912H352.479ZM362.789 801.176C364.757 801.176 366.549 800.36 366.549 798.296C366.549 796.36 364.773 795.976 363.093 795.688C362.037 795.496 361.573 795.288 361.573 794.776C361.573 794.312 361.989 794.024 362.725 794.024C363.525 794.024 364.373 794.36 365.237 794.952L366.245 793.496C365.301 792.744 364.245 792.296 362.501 792.296C360.597 792.296 359.189 793.288 359.189 795C359.189 797 360.917 797.384 362.533 797.672C363.701 797.88 364.149 798.104 364.149 798.696C364.149 799.256 363.589 799.528 362.789 799.528C361.749 799.528 360.597 799.096 359.829 798.424L358.805 799.864C359.669 800.6 360.917 801.176 362.789 801.176ZM337.395 827H338.531V821.752H341.219C343.715 821.752 345.475 820.776 345.475 818.392C345.475 816.216 343.907 815.16 341.331 815.16H337.395V827ZM338.531 820.744V816.2H341.283C343.267 816.2 344.339 816.824 344.339 818.424C344.339 820.136 343.251 820.744 341.299 820.744H338.531ZM352.028 827.224C354.396 827.224 355.932 825.768 356.508 823.432L355.42 823.192C354.908 825.176 353.804 826.2 352.044 826.2C349.74 826.2 348.236 824.28 348.236 821C348.236 817.96 349.724 815.976 352.012 815.976C353.82 815.976 354.7 816.952 355.228 818.824L356.316 818.552C355.756 816.36 354.428 814.936 352.028 814.936C349.068 814.936 347.1 817.448 347.1 821.032C347.1 824.808 349.036 827.224 352.028 827.224ZM358.864 827H366.272V825.96H360V821.256H364.432V820.232H360V816.216H365.936V815.16H358.864V827Z" fill="white"/>
</g>
<defs>
<linearGradient id="paint0_linear_218_689" x1="93.3215" y1="-745.543" x2="727.333" y2="-618.776" gradientUnits="userSpaceOnUse">
<stop stop-color="#FFA01D"/>
<stop offset="0.22" stop-color="#FFA01D"/>
<stop offset="0.44" stop-color="#32A4C9"/>
<stop offset="0.74" stop-color="#0089C8"/>
<stop offset="1" stop-color="#0072B6"/>
</linearGradient>
<linearGradient id="paint1_linear_218_689" x1="403.429" y1="-377.793" x2="1061.46" y2="416.151" gradientUnits="userSpaceOnUse">
<stop stop-color="#FFA01D"/>
<stop offset="0.22" stop-color="#FFA01D"/>
<stop offset="0.44" stop-color="#32A4C9"/>
<stop offset="0.74" stop-color="#0089C8"/>
<stop offset="1" stop-color="#0072B6"/>
</linearGradient>
<clipPath id="clip0_218_689">
<rect width="390" height="845" fill="white"/>
</clipPath>
</defs>
</svg>

<svg fill="none" height="845" viewBox="0 0 390 845" width="390" xmlns="http://www.w3.org/2000/svg" xmlns:xlink="http://www.w3.org/1999/xlink"><linearGradient id="a"><stop offset="0" stop-color="#ffa01d"/><stop offset=".22" stop-color="#ffa01d"/><stop offset=".44" stop-color="#32a4c9"/><stop offset=".74" stop-color="#0089c8"/><stop offset="1" stop-color="#0072b6"/></linearGradient><linearGradient id="b" gradientUnits="userSpaceOnUse" x1="93.3215" x2="727.333" xlink:href="#a" y1="-745.543" y2="-618.776"/><linearGradient id="c" gradientUnits="userSpaceOnUse" x1="403.429" x2="1061.46" xlink:href="#a" y1="-377.793" y2="416.151"/><clipPath id="d"><path d="m0 0h390v845h-390z"/></clipPath><mask id="e" height="844" maskUnits="userSpaceOnUse" width="390" x="2" y="0"><path d="m2 0h390v844h-390z" fill="url(#b)"/></mask><g clip-path="url(#d)"><path d="m0 0h390v845h-390z" fill="#fff"/><path d="m2 0h390v844h-390z" fill="#ffb81d" fill-opacity=".05"/><g mask="url(#e)"><path d="m179.617-74.9378h403.786c2.332 0 8.611 14.7735 9.458 16.4918 6.972 14.0021 11.92 28.9249 14.695 44.3204 3.233 18.42791 3.583 39.5073-1.81 57.5387-7.08 23.7152-19.048 45.2922-24.418 69.7769-5.37 24.485-10.437 68.635 10.041 88.478 2.006 2.092 4.581 3.552 7.406 4.199 14.369 2.705 40.037-23.164 50.295-31.165 18.006-14.034 35.484-28.73 53.497-42.765 24.721-19.252 49.612-40.9923 80.153-50.2685 44.545-13.5371 69.288 16.5774 108.525 28.9715 12.753 4.036 27.277 4.354 38.965-2.162 6.893-3.833 12.388-9.7889 17.035-16.1648 19.187-26.289 26.337-60.3068 32.694-91.649819.777-4.035481 9.931-75.663381 9.613-75.663381h145.878c-103.03 46.8552-123.56 176.317-209.502 241.732-23.539 18.032-49.277 41.281-79.103 47.664-11.416 2.45-24.985-.179-31.404-9.937-7.724-11.733-4.367-27.315-11.804-39.593-6.823-11.251-18.185-19.501-31.326-21.367-11.843-1.687-23.92.778-35.258 4.557-35.406 11.803-63.553 36.467-90.403 61.426-20.524 19.097-36.237 42.812-63.149 53.923-9.139 3.771-19.428 5.84-28.932 3.165-39.634-11.142-19.763-87.925-10.336-114.222 8.167-22.79 19.148-44.437 27.899-67.0017 3.559-9.1517 6.792-18.6612 7.11-28.4427 1.259-38.1544-42.174-50.40082-73.049-45.6733-41.103 6.2981-59.948 53.511-81.661 83.3922-11.509 15.8465-26.033 30.6745-44.715 36.5445-33.58 10.552-56.07-13.809-59.839-45.2686-3.287-27.6652-.528-56.4501-16.646-80.86519-16.118-24.41511-40.41-43.11511-65.527-57.80301-15.768-9.2762-38.957-22.168-58.168-22.168z" fill="url(#c)"/></g><g fill="#fff"><path d="m33.24 801.224c2.848 0 5.568-1.984 5.568-6.144s-2.72-6.144-5.568-6.144c-2.864 0-5.584 1.984-5.584 6.144s2.72 6.144 5.584 6.144zm0-2.096c-1.84 0-2.976-1.568-2.976-4.048s1.136-3.984 2.976-3.984c1.824 0 2.976 1.504 2.976 3.984s-1.152 4.048-2.976 4.048zm10.7921 2.048c2.256 0 3.312-1.264 3.856-2.592l-2.128-.736c-.368 1.152-.992 1.52-1.68 1.52-1.184 0-1.664-1.088-1.664-2.608 0-1.696.656-2.576 1.696-2.576.752 0 1.248.352 1.584 1.44l2.16-.72c-.496-1.376-1.392-2.608-3.712-2.608-1.888 0-4.304 1.04-4.304 4.448 0 3.312 2.192 4.432 4.192 4.432zm8.731-.064c.56 0 1.504-.08 1.696-.128v-1.84c-.176.064-.56.096-.848.096-.928 0-1.184-.288-1.184-1.2v-3.696h2.192v-1.872h-2.192v-2.928h-2.56v2.928h-1.424v1.872h1.424v4.256c0 1.6.368 2.512 2.896 2.512zm5.5962-9.552h1.696l2.384-2.768h-2.592zm-.48 9.568c1.2639 0 2.192-.496 2.976-1.376 0 .48.08.896.192 1.248h2.56c-.176-.432-.24-1.056-.24-2.08v-3.28c0-2.192-.96-3.344-3.296-3.344-2.128 0-3.408.752-4.256 1.52l1.088 1.472c.784-.608 1.712-1.056 2.8-1.056.832 0 1.152.4 1.152 1.024v.208c-3.744.304-5.408 1.392-5.408 3.36 0 1.456 1.12 2.304 2.432 2.304zm1.024-1.936c-.56 0-.944-.272-.944-.816 0-.784.864-1.296 2.896-1.504v1.584c-.432.432-1.056.736-1.952.736zm8.3863 1.824h2.592l3.04-8.544h-2.416l-1.792 5.68h-.032l-1.792-5.68h-2.656zm6.6726-9.712h2.5921v-2.064h-2.5921zm.0161 9.696h2.56v-8.528h-2.56zm8.5111.176c2.064 0 4.352-1.12 4.352-4.432 0-3.344-2.288-4.448-4.352-4.448-2.08 0-4.368 1.104-4.368 4.448 0 3.312 2.304 4.432 4.368 4.432zm0-1.808c-1.312 0-1.792-1.184-1.792-2.608 0-1.536.56-2.576 1.792-2.576 1.28 0 1.776 1.152 1.776 2.576 0 1.552-.56 2.608-1.776 2.608zm15.1989 1.856c2.9757 0 4.3837-1.664 4.9597-4.048l-2.448-.544c-.4157 1.616-1.1037 2.496-2.4957 2.496-1.792 0-2.784-1.568-2.784-4.064 0-2.448.9599-3.968 2.752-3.968 1.392 0 1.968.928 2.3517 2.288l2.464-.72c-.512-2.128-1.808-3.728-4.7997-3.728-2.992 0-5.376 2.016-5.376 6.128 0 4.176 2.288 6.16 5.376 6.16zm8.4727-.096c1.263 0 2.192-.496 2.976-1.376 0 .48.08.896.192 1.248h2.56c-.176-.432-.24-1.056-.24-2.08v-3.28c0-2.192-.96-3.344-3.296-3.344-2.128 0-3.408.752-4.256 1.52l1.088 1.472c.784-.608 1.712-1.056 2.8-1.056.832 0 1.152.4 1.152 1.024v.208c-3.744.304-5.408 1.392-5.408 3.36 0 1.456 1.12 2.304 2.432 2.304zm1.024-1.936c-.56 0-.944-.272-.944-.816 0-.784.864-1.296 2.896-1.504v1.584c-.432.432-1.056.736-1.952.736zm9.698 1.984c1.968 0 3.76-.816 3.76-2.88 0-1.936-1.776-2.32-3.456-2.608-1.056-.192-1.52-.4-1.52-.912 0-.464.416-.752 1.152-.752.8 0 1.648.336 2.512.928l1.008-1.456c-.944-.752-2-1.2-3.744-1.2-1.904 0-3.312.992-3.312 2.704 0 2 1.728 2.384 3.344 2.672 1.168.208 1.616.432 1.616 1.024 0 .56-.56.832-1.36.832-1.04 0-2.192-.432-2.96-1.104l-1.024 1.44c.864.736 2.112 1.312 3.984 1.312zm8.615-.064c.56 0 1.504-.08 1.696-.128v-1.84c-.176.064-.56.096-.848.096-.928 0-1.185-.288-1.185-1.2v-3.696h2.193v-1.872h-2.193v-2.928h-2.559v2.928h-1.424v1.872h1.424v4.256c0 1.6.368 2.512 2.896 2.512zm7.132.064c1.488 0 2.72-.432 3.712-1.28l-.992-1.536c-.576.528-1.52 1.024-2.528 1.024-1.072 0-1.856-.544-1.984-1.952h5.648v-.384c0-3.872-2.16-4.752-3.92-4.752s-4.288 1.136-4.288 4.448c0 3.296 2.128 4.432 4.352 4.432zm-1.76-5.264c.192-1.248.88-1.776 1.68-1.776.96 0 1.504.576 1.632 1.776zm7.202 5.088h2.56v-11.84h-2.56zm8.511.176c2.064 0 4.352-1.12 4.352-4.432 0-3.344-2.288-4.448-4.352-4.448-2.08 0-4.368 1.104-4.368 4.448 0 3.312 2.304 4.432 4.368 4.432zm0-1.808c-1.312 0-1.792-1.184-1.792-2.608 0-1.536.56-2.576 1.792-2.576 1.28 0 1.776 1.152 1.776 2.576 0 1.552-.56 2.608-1.776 2.608zm10.383 1.632h2.592v-4.208h1.68c2.368 0 4.864-.656 4.864-3.84 0-3.12-2.304-3.792-4.832-3.792h-4.304zm2.592-6.224v-3.488h1.776c1.632 0 2.224.624 2.224 1.728 0 1.136-.608 1.76-2.224 1.76zm9.446 6.352c1.264 0 2.192-.496 2.976-1.376 0 .48.08.896.192 1.248h2.56c-.176-.432-.24-1.056-.24-2.08v-3.28c0-2.192-.96-3.344-3.296-3.344-2.128 0-3.408.752-4.256 1.52l1.088 1.472c.784-.608 1.712-1.056 2.8-1.056.832 0 1.152.4 1.152 1.024v.208c-3.744.304-5.408 1.392-5.408 3.36 0 1.456 1.12 2.304 2.432 2.304zm1.024-1.936c-.56 0-.944-.272-.944-.816 0-.784.864-1.296 2.896-1.504v1.584c-.432.432-1.056.736-1.952.736zm8.755 1.984c1.488 0 2.432-.848 2.944-1.504v1.328h2.576v-8.528h-2.576v5.792c-.576.496-1.168.864-1.856.864-.72 0-1.008-.416-1.008-1.184v-5.472h-2.576v6.224c0 1.76 1.04 2.48 2.496 2.48zm7.57-.176h2.56v-11.84h-2.56zm8.511.176c2.064 0 4.352-1.12 4.352-4.432 0-3.344-2.288-4.448-4.352-4.448-2.08 0-4.368 1.104-4.368 4.448 0 3.312 2.304 4.432 4.368 4.432zm0-1.808c-1.312 0-1.792-1.184-1.792-2.608 0-1.536.56-2.576 1.792-2.576 1.28 0 1.776 1.152 1.776 2.576 0 1.552-.56 2.608-1.776 2.608zm-166.344 27.632h1.136v-5.248h2.688c2.496 0 4.256-.976 4.256-3.36 0-2.176-1.568-3.232-4.144-3.232h-3.936zm1.136-6.256v-4.544h2.752c1.984 0 3.056.624 3.056 2.224 0 1.712-1.088 2.32-3.04 2.32zm13.4973 6.48c2.368 0 3.904-1.456 4.48-3.792l-1.088-.24c-.512 1.984-1.616 3.008-3.376 3.008-2.304 0-3.808-1.92-3.808-5.2 0-3.04 1.488-5.024 3.776-5.024 1.808 0 2.688.976 3.216 2.848l1.088-.272c-.56-2.192-1.888-3.616-4.288-3.616-2.96 0-4.928 2.512-4.928 6.096 0 3.776 1.936 6.192 4.928 6.192zm5.8915-.224h1.104l1.264-3.648h4.8l1.264 3.648h1.184l-4.192-11.888h-1.232zm2.72-4.656 2.032-5.888h.032l2.032 5.888z"/><path d="m291.95 801h7.824v-2.112h-5.216v-9.728h-2.608zm11.551.176c1.488 0 2.432-.848 2.944-1.504v1.328h2.576v-8.528h-2.576v5.792c-.576.496-1.168.864-1.856.864-.72 0-1.008-.416-1.008-1.184v-5.472h-2.576v6.224c0 1.76 1.04 2.48 2.496 2.48zm7.923-9.616h1.696l2.384-2.768h-2.592zm-.352 9.44h2.56v-8.528h-2.56zm7.967.176c1.968 0 3.76-.816 3.76-2.88 0-1.936-1.776-2.32-3.456-2.608-1.056-.192-1.52-.4-1.52-.912 0-.464.416-.752 1.152-.752.8 0 1.648.336 2.512.928l1.008-1.456c-.944-.752-2-1.2-3.744-1.2-1.904 0-3.312.992-3.312 2.704 0 2 1.728 2.384 3.344 2.672 1.168.208 1.616.432 1.616 1.024 0 .56-.56.832-1.36.832-1.04 0-2.192-.432-2.96-1.104l-1.024 1.44c.864.736 2.112 1.312 3.984 1.312zm11.896-.176h2.608v-9.664h3.536v-2.176h-9.664v2.176h3.52zm9.367.176c1.488 0 2.72-.432 3.712-1.28l-.992-1.536c-.576.528-1.52 1.024-2.528 1.024-1.072 0-1.856-.544-1.984-1.952h5.648v-.384c0-3.872-2.16-4.752-3.92-4.752s-4.288 1.136-4.288 4.448c0 3.296 2.128 4.432 4.352 4.432zm-1.76-5.264c.192-1.248.88-1.776 1.68-1.776.96 0 1.504.576 1.632 1.776zm7.202 5.088h2.56v-11.84h-2.56zm8.495.176c1.488 0 2.72-.432 3.712-1.28l-.992-1.536c-.576.528-1.52 1.024-2.528 1.024-1.072 0-1.856-.544-1.984-1.952h5.648v-.384c0-3.872-2.16-4.752-3.92-4.752s-4.288 1.136-4.288 4.448c0 3.296 2.128 4.432 4.352 4.432zm-1.76-5.264c.192-1.248.88-1.776 1.68-1.776.96 0 1.504.576 1.632 1.776zm10.31 5.264c1.968 0 3.76-.816 3.76-2.88 0-1.936-1.776-2.32-3.456-2.608-1.056-.192-1.52-.4-1.52-.912 0-.464.416-.752 1.152-.752.8 0 1.648.336 2.512.928l1.008-1.456c-.944-.752-2-1.2-3.744-1.2-1.904 0-3.312.992-3.312 2.704 0 2 1.728 2.384 3.344 2.672 1.168.208 1.616.432 1.616 1.024 0 .56-.56.832-1.36.832-1.04 0-2.192-.432-2.96-1.104l-1.024 1.44c.864.736 2.112 1.312 3.984 1.312zm-25.394 25.824h1.136v-5.248h2.688c2.496 0 4.256-.976 4.256-3.36 0-2.176-1.568-3.232-4.144-3.232h-3.936zm1.136-6.256v-4.544h2.752c1.984 0 3.056.624 3.056 2.224 0 1.712-1.088 2.32-3.04 2.32zm13.497 6.48c2.368 0 3.904-1.456 4.48-3.792l-1.088-.24c-.512 1.984-1.616 3.008-3.376 3.008-2.304 0-3.808-1.92-3.808-5.2 0-3.04 1.488-5.024 3.776-5.024 1.808 0 2.688.976 3.216 2.848l1.088-.272c-.56-2.192-1.888-3.616-4.288-3.616-2.96 0-4.928 2.512-4.928 6.096 0 3.776 1.936 6.192 4.928 6.192zm6.836-.224h7.408v-1.04h-6.272v-4.704h4.432v-1.024h-4.432v-4.016h5.936v-1.056h-7.072z"/></g></g></svg>
